public/favicon.svg

<svg width="158" height="158" viewBox="0 0 158 158" fill="none" xmlns="http://www.w3.org/2000/svg">
<rect width="158" height="158" rx="79" fill="white"/>
<path d="M29.2942 37.624V24.086C29.2942 23.1455 29.7054 22.4142 30.5279 21.8922C31.3504 21.3701 32.2208 21.3378 33.139 21.7951L46.6448 28.5641C47.5935 29.1034 48.0679 29.867 48.0679 30.855C48.0679 31.843 47.5935 32.6066 46.6448 33.1459L33.1455 39.9149C32.2229 40.3679 31.3504 40.3334 30.5279 39.8114C29.7011 39.2937 29.2942 38.5646 29.2942 37.624ZM112.144 37.624V24.086C112.144 23.1455 112.557 22.4142 113.384 21.8922C114.211 21.3701 115.081 21.3378 115.995 21.7951L129.494 28.5641C130.439 29.1034 130.911 29.867 130.911 30.855C130.911 31.843 130.439 32.6066 129.494 33.1459L115.995 39.9149C115.077 40.3679 114.207 40.3334 113.384 39.8114C112.562 39.2893 112.148 38.5602 112.144 37.624ZM73.4802 32.1493V18.6047C73.4802 17.6685 73.8936 16.9394 74.7205 16.4174C75.5473 15.8954 76.4177 15.863 77.3315 16.3203L90.8243 23.0894C91.773 23.6286 92.2473 24.3923 92.2473 25.3802C92.2473 26.3639 91.773 27.1253 90.8243 27.6646L77.3315 34.4401C76.4133 34.8931 75.5429 34.8586 74.7205 34.3366C73.898 33.8146 73.4846 33.0855 73.4802 32.1493ZM63.6625 133.983C50.0196 133.12 39.1641 131.215 31.0958 128.268C23.0319 125.317 19 121.967 19 118.218V64.9526C19 62.6704 20.4818 60.5564 23.4454 58.6107C26.4133 56.6693 30.541 54.9738 35.8284 53.5242C41.1202 52.0746 47.402 50.9205 54.6739 50.062C61.9458 49.1992 69.8878 48.7677 78.5 48.7677C87.1122 48.7677 95.0543 49.1992 102.326 50.062C109.598 50.9205 115.88 52.0746 121.172 53.5242C126.459 54.9695 130.587 56.665 133.555 58.6107C136.518 60.5564 138 62.6704 138 64.9526V118.212C138 121.991 133.94 125.348 125.819 128.281C117.699 131.219 106.819 133.12 93.1808 133.983C91.823 134.09 90.6698 133.696 89.7211 132.798C88.7681 131.892 88.2916 130.771 88.2916 129.433V108.511H68.7085V129.265C68.7085 130.611 68.208 131.761 67.2071 132.714C66.1975 133.668 65.0159 134.09 63.6625 133.983ZM78.5 74.6597C89.3055 74.6597 99.4213 73.8119 108.847 72.1164C118.273 70.4166 125.315 68.1775 129.971 65.3991C128.548 63.1169 123.347 60.8541 114.37 58.6107C105.388 56.3673 93.431 55.2456 78.5 55.2456C63.569 55.2456 51.6146 56.3673 42.6368 58.6107C33.6547 60.8541 28.4543 63.1191 27.0356 65.4056C31.6877 68.1797 38.2458 70.4166 46.7101 72.1164C55.1743 73.8119 65.771 74.6597 78.5 74.6597ZM62.1807 127.324V108.511C62.1807 106.777 62.8313 105.265 64.1325 103.975C65.4381 102.681 66.9634 102.034 68.7085 102.034H88.2916C90.041 102.034 91.5663 102.681 92.8675 103.975C94.1687 105.265 94.8193 106.775 94.8193 108.505V127.324C105.111 126.547 113.388 125.197 119.651 123.273C125.909 121.353 129.849 119.454 131.472 117.578V71.8705C124.318 75.158 116.352 77.5222 107.574 78.9631C98.7968 80.4084 89.1053 81.131 78.5 81.131C67.8947 81.131 58.2032 80.4084 49.4256 78.9631C40.648 77.5222 32.6821 75.158 25.5277 71.8705V117.584C27.1509 119.457 30.8412 121.355 36.5987 123.279C42.3561 125.203 50.8835 126.551 62.1807 127.324Z" fill="black"/>
</svg>

<svg xmlns="http://www.w3.org/2000/svg" width="158" height="158" fill="none"><rect width="158" height="158" fill="#fff" rx="79"/><path fill="#000" d="M29.3 37.62V24.1c0-.94.4-1.68 1.23-2.2a2.5 2.5 0 0 1 2.6-.1l13.51 6.77c.95.54 1.43 1.3 1.43 2.3 0 .98-.48 1.75-1.43 2.29l-13.5 6.76c-.92.46-1.79.42-2.61-.1a2.44 2.44 0 0 1-1.24-2.19Zm82.84 0V24.1c0-.94.42-1.68 1.24-2.2a2.5 2.5 0 0 1 2.62-.1l13.5 6.77c.94.54 1.41 1.3 1.41 2.3 0 .98-.47 1.75-1.42 2.29L116 39.9c-.91.46-1.78.42-2.6-.1a2.47 2.47 0 0 1-1.25-2.19Zm-38.66-5.47V18.6c0-.93.41-1.66 1.24-2.18a2.5 2.5 0 0 1 2.61-.1l13.5 6.77c.94.54 1.42 1.3 1.42 2.29 0 .98-.48 1.75-1.43 2.28l-13.49 6.78c-.92.45-1.79.42-2.6-.1a2.47 2.47 0 0 1-1.25-2.2Zm-9.82 101.83c-13.64-.86-24.5-2.76-32.56-5.71-8.07-2.95-12.1-6.3-12.1-10.05V64.95c0-2.28 1.48-4.4 4.45-6.34 2.96-1.94 7.1-3.64 12.38-5.09 5.29-1.45 11.57-2.6 18.84-3.46 7.28-.86 15.22-1.3 23.83-1.3 8.61 0 16.55.44 23.83 1.3 7.27.86 13.55 2.01 18.84 3.46 5.29 1.45 9.42 3.14 12.39 5.1 2.96 1.94 4.44 4.05 4.44 6.33v53.26c0 3.78-4.06 7.14-12.18 10.07-8.12 2.94-19 4.84-32.64 5.7a4.32 4.32 0 0 1-3.46-1.18 4.46 4.46 0 0 1-1.43-3.37v-20.92H68.71v20.75c0 1.35-.5 2.5-1.5 3.45a4.45 4.45 0 0 1-3.55 1.27ZM78.5 74.66c10.8 0 20.92-.85 30.35-2.54 9.42-1.7 16.47-3.94 21.12-6.72-1.42-2.28-6.62-4.55-15.6-6.79s-20.94-3.36-35.87-3.36c-14.93 0-26.89 1.12-35.86 3.36-8.99 2.24-14.19 4.5-15.6 6.8 4.65 2.77 11.2 5 19.67 6.7 8.46 1.7 19.06 2.55 31.79 2.55Zm-16.32 52.66v-18.8c0-1.74.65-3.25 1.95-4.55a6.3 6.3 0 0 1 4.58-1.94h19.58c1.75 0 3.28.65 4.58 1.94a6.18 6.18 0 0 1 1.95 4.53v18.82c10.3-.77 18.57-2.12 24.83-4.05 6.26-1.92 10.2-3.82 11.82-5.7v-45.7a93.12 93.12 0 0 1-23.9 7.1 179.59 179.59 0 0 1-29.07 2.16c-10.6 0-20.3-.72-29.07-2.17a93.13 93.13 0 0 1-23.9-7.09v45.71c1.62 1.88 5.31 3.78 11.07 5.7 5.76 1.92 14.28 3.27 25.58 4.04Z"/></svg>
